lib/logo_tmp/nrk-logo-nrk-tv-title-below-on-dark.svg

<svg width="35" height="41" viewBox="0 0 35 41" fill="none" xmlns="http://www.w3.org/2000/svg">
<path d="M0 18.0007V6.00182H3.93719V18.0007H0ZM9.29381 7.91151L11.5581 18.0007H7.24917L4.54549 6.00182H6.96218C7.51635 5.99463 8.05406 6.18998 8.4745 6.55112C8.89562 6.89711 9.18495 7.37743 9.29381 7.91151ZM12.1495 18.0007V6.00182H16.0867V18.0007H12.1495ZM19.0605 10.5648C18.6362 10.569 18.2188 10.458 17.8525 10.2437C17.4912 10.0349 17.1911 9.73469 16.9823 9.37333C16.7678 9.00706 16.6568 8.58949 16.661 8.16505C16.6561 7.74319 16.7672 7.32811 16.9823 6.96516C17.1933 6.60772 17.4931 6.31083 17.8525 6.10325C18.2189 5.88923 18.6362 5.77825 19.0605 5.78212C19.4822 5.77757 19.8971 5.88866 20.2602 6.10325C20.616 6.31265 20.9127 6.60929 21.122 6.96516C21.3368 7.32821 21.4479 7.74323 21.4433 8.16505C21.4473 8.58946 21.3363 9.00696 21.122 9.37333C20.9149 9.73311 20.6179 10.033 20.2602 10.2437C19.8971 10.4587 19.4819 10.5698 19.0599 10.5648H19.0605ZM22.0516 18.0007V6.00182H25.9892V18.0007H22.0516ZM30.9737 12.559C30.9848 12.5706 31.0693 12.7086 31.2272 12.973C31.3851 13.2374 31.5906 13.5754 31.8439 13.987C32.0974 14.3984 32.3649 14.835 32.6463 15.2967C32.9278 15.7585 33.1926 16.1951 33.4408 16.6065C33.6881 17.0179 33.9697 17.4827 34.2857 18.0007H29.9598C29.6893 17.5613 29.4441 17.1642 29.2245 16.8093C29.0048 16.4544 28.7713 16.0713 28.5238 15.6601C28.2758 15.2492 28.0306 14.8493 27.7882 14.4602C27.5458 14.0711 27.3375 13.7303 27.1633 13.4378C26.9883 13.145 26.8671 12.9479 26.7997 12.8463C26.6325 12.5942 26.5336 12.303 26.5127 12.0013C26.5294 11.7117 26.6226 11.4317 26.7828 11.1898C26.8504 11.0772 26.9743 10.8772 27.1545 10.5899C27.3348 10.3026 27.546 9.96179 27.7882 9.56746C28.0304 9.17313 28.2756 8.77034 28.5238 8.35911C28.772 7.94788 29.0056 7.56197 29.2245 7.20144C29.4445 6.84128 29.6897 6.44132 29.9598 6.00155H34.2857L30.9396 11.4602C30.8361 11.6223 30.7777 11.8091 30.7706 12.0013C30.7818 12.2031 30.8522 12.3971 30.9731 12.559H30.9737Z" fill="white"/>
<path d="M0 24.4873H3.89621V35H5.68268V24.4873H9.56189V23H0V24.4873Z" fill="#8BB5EB"/>
<path d="M18.9536 23L16.4185 30.4704C16.2932 30.8535 16.1655 31.2592 16.0354 31.6873C15.9054 32.1155 15.7807 32.5437 15.6614 32.9718C15.5996 33.1929 15.5403 33.4062 15.4836 33.6118C15.4241 33.3946 15.3614 33.171 15.2956 32.938C15.1703 32.4986 15.0426 32.062 14.9125 31.6282C14.7824 31.1944 14.6492 30.7859 14.5127 30.4028L12.0286 23H10.1231L14.3085 35H16.5203L20.7228 23H18.9536Z" fill="#8BB5EB"/>
</svg>

<svg xmlns="http://www.w3.org/2000/svg" viewBox="0 0 35 41"><path fill="#fff" d="M0 18V6.003h3.937V18H0ZM9.294 7.913 11.558 18H7.25L4.545 6h2.417a2.276 2.276 0 0 1 1.513.55c.42.346.71.826.819 1.36ZM12.149 18V6h3.938v12h-3.938Zm6.912-7.436a2.381 2.381 0 0 1-2.078-1.191 2.345 2.345 0 0 1-.322-1.209 2.301 2.301 0 0 1 .321-1.2 2.41 2.41 0 0 1 3.278-.862c.356.21.653.506.862.862.215.363.326.778.321 1.2a2.35 2.35 0 0 1-.321 1.208 2.4 2.4 0 0 1-.862.87 2.302 2.302 0 0 1-1.2.322ZM22.05 18V6h3.938v12h-3.937Zm8.923-5.442c.01.012.095.15.253.414s.364.602.617 1.014a315.936 315.936 0 0 1 1.597 2.62c.247.41.529.876.845 1.394H29.96c-.27-.44-.516-.837-.736-1.192-.22-.355-.453-.738-.7-1.149-.248-.41-.493-.81-.736-1.2-.242-.389-.45-.73-.625-1.022-.175-.293-.296-.49-.363-.592a1.747 1.747 0 0 1-.287-.845c.016-.29.11-.57.27-.811.067-.113.191-.313.371-.6s.392-.628.634-1.023c.242-.394.488-.797.736-1.208l.7-1.158.736-1.2h4.326l-3.346 5.46a1.08 1.08 0 0 0-.17.54c.012.202.082.396.203.558Z"/><path fill="#8BB5EB" d="M0 24.487h3.896V35h1.787V24.487h3.879V23H0v1.487ZM18.954 23l-2.535 7.47a60.685 60.685 0 0 0-.935 3.142 89.498 89.498 0 0 0-.572-1.984c-.13-.434-.263-.842-.4-1.225L12.03 23h-1.906l4.186 12h2.211l4.203-12h-1.77Z"/></svg>
